X:0613
M:2/4
L:1/8
Q:1/4=104
K:G
g>GB>G|g>GB>G|(3FAD (3FAD|g>G`B>G|g>GB>G|  c>de>c|EAFD|G2G2:|

